actions/24/object-merge.svg

<?xml version="1.0" encoding="UTF-8" standalone="no"?>
<svg
   width="24"
   height="24"
   id="svg3850"
   version="1.1"
   sodipodi:docname="object-merge.svg"
   inkscape:version="1.2.2 (b0a8486541, 2022-12-01)"
   xmlns:inkscape="http://www.inkscape.org/namespaces/inkscape"
   xmlns:sodipodi="http://sodipodi.sourceforge.net/DTD/sodipodi-0.dtd"
   xmlns:xlink="http://www.w3.org/1999/xlink"
   xmlns="http://www.w3.org/2000/svg"
   xmlns:svg="http://www.w3.org/2000/svg"
   xmlns:rdf="http://www.w3.org/1999/02/22-rdf-syntax-ns#"
   xmlns:cc="http://creativecommons.org/ns#"
   xmlns:dc="http://purl.org/dc/elements/1.1/">
  <sodipodi:namedview
     id="namedview832"
     pagecolor="#ffffff"
     bordercolor="#000000"
     borderopacity="0.25"
     inkscape:showpageshadow="2"
     inkscape:pageopacity="0.0"
     inkscape:pagecheckerboard="0"
     inkscape:deskcolor="#d1d1d1"
     showgrid="false"
     inkscape:zoom="22.627417"
     inkscape:cx="12.838407"
     inkscape:cy="13.788582"
     inkscape:window-width="1278"
     inkscape:window-height="1005"
     inkscape:window-x="109"
     inkscape:window-y="12"
     inkscape:window-maximized="0"
     inkscape:current-layer="layer1" />
  <defs
     id="defs3852">
    <linearGradient
       id="linearGradient4715">
      <stop
         style="stop-color:#555555;stop-opacity:1;"
         offset="0"
         id="stop4717" />
      <stop
         style="stop-color:#666666;stop-opacity:1;"
         offset="1"
         id="stop4719" />
    </linearGradient>
    <linearGradient
       xlink:href="#linearGradient4715"
       id="linearGradient4728"
       gradientUnits="userSpaceOnUse"
       x1="8"
       y1="19.5"
       x2="8"
       y2="-2.5"
       gradientTransform="translate(4,-4)" />
  </defs>
  <metadata
     id="metadata3855">
    <rdf:RDF>
      <cc:Work
         rdf:about="">
        <dc:format>image/svg+xml</dc:format>
        <dc:type
           rdf:resource="http://purl.org/dc/dcmitype/StillImage" />
      </cc:Work>
    </rdf:RDF>
  </metadata>
  <g
     id="layer1"
     transform="translate(0,8)">
    <path
       id="path2843-39-5-5"
       style="color:#bebebe;display:inline;overflow:visible;visibility:visible;fill:url(#linearGradient4728);fill-opacity:1;fill-rule:nonzero;stroke:none;stroke-width:1;marker:none;enable-background:accumulate"
       d="M 12,8.78125 C 13.091253,10.194714 14.975143,11.5 18,11.5 h 2 0.5 V 11 9 8.5 H 20 18 C 16.698812,8.5 15.847709,8.2929937 15.25,7.96875 H 15.21875 C 14.640138,7.6482113 14.294713,7.1891056 14.03125,6.75 13.510812,5.8825979 13.5,5 13.5,5 V 2.5 h 3.000002 c 0.391999,-6.1e-5 0.747821,-0.2291319 0.910156,-0.5859375 0.06086,-0.1340579 0.09059,-0.2763049 0.08984,-0.4179687 -0.0012,-0.2361078 -0.0864,-0.4696821 -0.248047,-0.65429692 L 12.751949,-5.1581016 C 12.552768,-5.3852559 12.276383,-5.4998985 12,-5.4998985 c -0.276383,0 -0.552768,0.1146426 -0.751953,0.3417969 L 6.748023,0.84179688 C 6.183144,1.4881802 6.641549,2.49905 7.499977,2.5 H 10.5 V 5 C 10.5,5 10.4892,5.8826029 9.96875,6.75 9.701865,7.1948086 9.342135,7.6475303 8.75,7.96875 8.152291,8.2929937 7.301187,8.5 6,8.5 H 4 3.5 V 9 11 11.5 H 4 6 c 3.024856,0 4.908747,-1.305286 6,-2.71875 z"
       sodipodi:nodetypes="csccccccsccsccccsccsccccccssccccccscc" />
    <path
       style="color:#bebebe;display:inline;overflow:visible;visibility:visible;opacity:0.4;fill:#ffffff;fill-opacity:1;fill-rule:nonzero;stroke:none;stroke-width:1;marker:none;enable-background:accumulate"
       d="M 11,5 C 11,5 11.0021,6.006907 10.40625,7 10.11439,7.486435 9.6906092,8.03161 9,8.40625 8.3058252,8.782824 7.3542184,9 6,9 H 4 v 1 H 6 C 7.3542184,10 8.3058252,9.782824 9,9.40625 9.6906092,9.03161 10.11439,8.486435 10.40625,8 11.0021,7.006907 11,6 11,6 Z"
       id="path4739" />
    <path
       id="path1647"
       style="color:#bebebe;display:inline;overflow:visible;visibility:visible;opacity:0.6;fill:none;fill-opacity:1;fill-rule:nonzero;stroke:#000000;stroke-width:1;stroke-linejoin:round;stroke-opacity:1;marker:none;enable-background:accumulate"
       d="m 18,11.5 h 2 0.5 V 11 9 8.5 H 20 18 C 16.698812,8.5 15.847709,8.2929937 15.25,7.96875 H 15.21875 C 14.640138,7.6482113 14.294713,7.1891056 14.03125,6.75 13.51081,5.8825979 13.5,5 13.5,5 V 2.5 h 3.000002 c 0.391999,-6.1e-5 0.747821,-0.2291319 0.910156,-0.5859375 0.06086,-0.1340579 0.09059,-0.2763049 0.08984,-0.4179687 -0.0012,-0.2361078 -0.0864,-0.4696821 -0.248047,-0.65429692 L 12.751949,-5.1581016 C 12.552768,-5.3852559 12.276383,-5.4998985 12,-5.4998985 c -0.276383,0 -0.552768,0.1146426 -0.751953,0.3417969 L 6.748023,0.84179688 C 6.183144,1.4881802 6.641549,2.49905 7.499977,2.5 H 10.5 V 5 C 10.5,5 10.4892,5.8826029 9.96875,6.75 9.701865,7.1948086 9.342135,7.6475303 8.75,7.96875 8.152291,8.2929937 7.301187,8.5 6,8.5 H 4 3.5 V 9 11 11.5 H 4 6 c 3.024856,0 4.908747,-1.305286 6,-2.71875 1.091253,1.413464 2.975143,2.71875 6,2.71875 z"
       sodipodi:nodetypes="sccccccsccsccccsccsccccccssccccccscs" />
    <path
       style="opacity:0.4;fill:none;stroke:#ffffff;stroke-width:1;stroke-linecap:round;stroke-linejoin:round;stroke-dasharray:none;stroke-opacity:1;stop-color:#000000"
       d="m 7.5,1.5 4.5,-6 4.5,6"
       id="path1712"
       sodipodi:nodetypes="ccc" />
    <path
       style="color:#bebebe;display:inline;overflow:visible;visibility:visible;opacity:0.4;fill:#ffffff;fill-opacity:1;fill-rule:nonzero;stroke:none;stroke-width:1;marker:none;enable-background:accumulate"
       d="M 13,5 C 13,5 12.9979,6.006907 13.59375,7 13.88561,7.486435 14.309391,8.03161 15,8.40625 15.694175,8.782824 16.645781,9 18,9 h 2 v 1 H 18 C 16.645781,10 15.694175,9.782824 15,9.40625 14.309391,9.03161 13.88561,8.486435 13.59375,8 12.9979,7.006907 13,6 13,6 Z"
       id="path458" />
  </g>
</svg>

<?xml version="1.0" encoding="UTF-8" standalone="no"?>
<svg
   xmlns:dc="http://purl.org/dc/elements/1.1/"
   xmlns:cc="http://creativecommons.org/ns#"
   xmlns:rdf="http://www.w3.org/1999/02/22-rdf-syntax-ns#"
   xmlns:svg="http://www.w3.org/2000/svg"
   xmlns="http://www.w3.org/2000/svg"
   xmlns:xlink="http://www.w3.org/1999/xlink"
   width="24"
   height="24"
   id="svg3850"
   version="1.1">
  <defs
     id="defs3852">
    <linearGradient
       id="linearGradient4715">
      <stop
         style="stop-color:#555555;stop-opacity:1;"
         offset="0"
         id="stop4717" />
      <stop
         style="stop-color:#666666;stop-opacity:1;"
         offset="1"
         id="stop4719" />
    </linearGradient>
    <linearGradient
       xlink:href="#linearGradient4715"
       id="linearGradient4728"
       gradientUnits="userSpaceOnUse"
       x1="8"
       y1="19.5"
       x2="8"
       y2="-2.5"
       gradientTransform="translate(4,-4)" />
  </defs>
  <metadata
     id="metadata3855">
    <rdf:RDF>
      <cc:Work
         rdf:about="">
        <dc:format>image/svg+xml</dc:format>
        <dc:type
           rdf:resource="http://purl.org/dc/dcmitype/StillImage" />
        <dc:title />
      </cc:Work>
    </rdf:RDF>
  </metadata>
  <g
     id="layer1"
     transform="translate(0,8)">
    <path
       style="color:#bebebe;fill:url(#linearGradient4728);fill-opacity:1;fill-rule:nonzero;stroke:none;stroke-width:1;marker:none;visibility:visible;display:inline;overflow:visible;enable-background:accumulate"
       d="m 12,-4.90625 -0.40625,0.625 -4,6 L 7.0625,2.5 8,2.5 l 2.5,0 0,2.5 C 10.5,5 10.4892,5.882602 9.96875,6.75 9.7018652,7.194809 9.3421356,7.64753 8.75,7.96875 8.1522901,8.292994 7.3011884,8.5 6,8.5 l -2,0 -0.5,0 0,0.5 0,2 0,0.5 0.5,0 2,0 c 3.0248595,0 4.877496,-1.305285 5.96875,-2.71875 l 0.03125,0 0.03125,0 C 13.122504,10.194715 14.97514,11.5 18,11.5 l 2,0 0.5,0 0,-0.5 0,-2 0,-0.5 -0.5,0 -2,0 c -1.301189,0 -2.15229,-0.207006 -2.75,-0.53125 l -0.03125,0 C 14.640137,7.648211 14.294713,7.189106 14.03125,6.75 13.510811,5.882597 13.5,5 13.5,5 l 0,-2.5 2.5,0 0.9375,0 -0.53125,-0.78125 -4,-6 L 12,-4.90625 z"
       id="path2843-39-5-5" />
    <path
       id="path4737"
       d="m 12,-4.90625 -0.40625,0.625 -4,6 L 7.0625,2.5 8,2.5 l 2.5,0 0,2.5 C 10.5,5 10.4892,5.882602 9.96875,6.75 9.7018652,7.194809 9.3421356,7.64753 8.75,7.96875 8.1522901,8.292994 7.3011884,8.5 6,8.5 l -2,0 -0.5,0 0,0.5 0,2 0,0.5 0.5,0 2,0 c 3.0248595,0 4.877496,-1.305285 5.96875,-2.71875 l 0.03125,0 0.03125,0 C 13.122504,10.194715 14.97514,11.5 18,11.5 l 2,0 0.5,0 0,-0.5 0,-2 0,-0.5 -0.5,0 -2,0 c -1.301189,0 -2.15229,-0.207006 -2.75,-0.53125 l -0.03125,0 C 14.640137,7.648211 14.294713,7.189106 14.03125,6.75 13.510811,5.882597 13.5,5 13.5,5 l 0,-2.5 2.5,0 0.9375,0 -0.53125,-0.78125 -4,-6 L 12,-4.90625 z"
       style="opacity:0.61000001;color:#bebebe;fill:none;stroke:#000000;stroke-width:1;stroke-opacity:1;marker:none;visibility:visible;display:inline;overflow:visible;enable-background:accumulate" />
    <path
       style="opacity:0.3;color:#bebebe;fill:#ffffff;fill-opacity:1;fill-rule:nonzero;stroke:none;stroke-width:1;marker:none;visibility:visible;display:inline;overflow:visible;enable-background:accumulate"
       d="M 12,-4 8,2 8.65625,2 12,-3 15.34375,2 16,2 12,-4 z M 11,5 C 11,5 11.0021,6.006907 10.40625,7 10.11439,7.486435 9.6906092,8.03161 9,8.40625 8.3058252,8.782824 7.3542184,9 6,9 l -2,0 0,1 2,0 C 7.3542184,10 8.3058252,9.782824 9,9.40625 9.6906092,9.03161 10.11439,8.486435 10.40625,8 11.0021,7.006907 11,6 11,6 l 0,-1 z m 2,0 0,1 c 0,0 -0.0021,1.006906 0.59375,2 0.283554,0.472592 0.693145,1.028517 1.375,1.40625 l 0.03125,0 0.09375,0.0625 0.125,0 0.03125,0 C 15.924744,9.788403 16.759752,10 18,10 l 2,0 0,-1 -2,0 C 16.759752,9 15.924744,8.788403 15.25,8.46875 l -0.03125,0 -0.125,0 L 15,8.40625 l -0.03125,0 C 14.286895,8.028517 13.877304,7.472592 13.59375,7 12.9979,6.006906 13,5 13,5 z"
       id="path4739" />
  </g>
</svg>
